cypex/img/main/mainForm__bg_alt.svg

<svg width="1920" height="753" fill="none" xmlns="http://www.w3.org/2000/svg"><g opacity=".5" filter="url(#a)"><circle cx="955" cy="1071" r="762" fill="url(#b)"/></g><g opacity=".5" filter="url(#c)"><circle cx="768.5" cy="1257.5" r="575.5" fill="url(#d)"/></g><path d="M521.494 415.084a2.667 2.667 0 1 0 5.333 0 2.667 2.667 0 0 0-5.333 0Zm-60.774 9.373-.354-.354.354.354Zm-37.374 37.374-.354-.354.354.354ZM-43 471.703h443.718v-1H-43v1Zm466.699-9.519 37.375-37.374-.708-.707-37.374 37.374.707.707Zm59.648-46.6h40.813v-1h-40.813v1Zm-22.273 9.226a31.5 31.5 0 0 1 22.273-9.226v-1a32.5 32.5 0 0 0-22.981 9.519l.708.707Zm-60.356 46.893a32.5 32.5 0 0 0 22.981-9.519l-.707-.707a31.496 31.496 0 0 1-22.274 9.226v1Zm58.115-131.063a2.667 2.667 0 1 0 5.334 0 2.667 2.667 0 0 0-5.334 0Zm-155.4 9.372-.354-.353.354.353Zm-45.773 45.774.353.353-.353-.353ZM-43 405.658h278.032v-1H-43v1Zm301.013-9.519 45.773-45.773-.707-.707-45.773 45.773.707.707Zm68.047-54.999H461.5v-1H326.06v1Zm-22.274 9.226a31.503 31.503 0 0 1 22.274-9.226v-1a32.5 32.5 0 0 0-22.981 9.519l.707.707Zm-68.754 55.292a32.5 32.5 0 0 0 22.981-9.519l-.707-.707a31.502 31.502 0 0 1-22.274 9.226v1ZM389.928 366.6a2.667 2.667 0 1 0 5.333 0 2.667 2.667 0 0 0-5.333 0Zm-432.164 76.089H303.75v-1H-42.236v1Zm368.967-9.519 66.217-66.217-.707-.707-66.217 66.217.707.707Zm-22.981 9.519a32.5 32.5 0 0 0 22.981-9.519l-.707-.707a31.5 31.5 0 0 1-22.274 9.226v1Zm1060.3-51.554c0 1.473-1.2 2.667-2.67 2.667a2.663 2.663 0 0 1-2.66-2.667 2.663 2.663 0 0 1 2.66-2.667c1.47 0 2.67 1.194 2.67 2.667Zm631.27 133.026.36.354-.36-.354Zm401.79-71.062h-316.97v-1h316.97v1Zm-339.24 9.226-62.19 62.19-.71-.708 62.19-62.189.71.707Zm-85.17 71.709h-164v-1h164v1Zm-186.98-9.519-48.82-48.828.7-.707 48.83 48.827-.71.708Zm-71.1-58.054h-265.16v-1h265.16v1Zm-288.14-9.519-65.45-65.453.71-.707 65.45 65.453-.71.707Zm22.98 9.519c-8.62 0-16.88-3.424-22.98-9.519l.71-.707a31.505 31.505 0 0 0 22.27 9.226v1Zm287.44 9.226a31.51 31.51 0 0 0-22.28-9.226v-1c8.62 0 16.89 3.424 22.98 9.519l-.7.707Zm71.8 58.347a32.51 32.51 0 0 1-22.98-9.519l.71-.708a31.501 31.501 0 0 0 22.27 9.227v1Zm186.98-9.519a32.527 32.527 0 0 1-22.98 9.519v-1c8.35 0 16.36-3.319 22.27-9.227l.71.708Zm84.46-71.416a31.47 31.47 0 0 0-22.27 9.226l-.71-.707a32.488 32.488 0 0 1 22.98-9.519v1Zm30.27 30.805-.36-.353.15-.147h.21v.5Zm-98.88 98.877.35.354-.14.146h-.21v-.5Zm-232.5 0v.5h-.2l-.15-.146.35-.354Zm-84.37-84.37v-.5h.21l.15.147-.36.353Zm-230.57 0a2.665 2.665 0 1 1-5.33 0 2.664 2.664 0 1 1 5.33 0Zm933.02-14.007h-286.7v-1h286.7v1Zm-286.35-.146-98.88 98.877-.71-.707 98.88-98.877.71.707Zm-99.23 99.023h-232.5v-1h232.5v1Zm-232.85-.146-84.37-84.37.71-.707 84.37 84.37-.71.707Zm-84.02-84.224h-233.23v-1h233.23v1Zm-330.99 98.759c0 1.473-1.2 2.667-2.67 2.667a2.671 2.671 0 0 1-2.67-2.667 2.671 2.671 0 0 1 5.34 0Zm46.37-49.037.35.353-.35-.353Zm281.02 0-.36.353.36-.353Zm70.58 70.588.36-.354-.36.354Zm350.46-83.568.36.353-.36-.353Zm283.1-8.873h-260.47v-1h260.47v1Zm-282.74 9.226-83.57 83.568-.71-.707 83.57-83.568.71.707Zm-106.55 93.087h-221.64v-1h221.64v1Zm-244.62-9.519-70.59-70.588.71-.707 70.59 70.588-.71.707Zm-92.86-79.814h-235.76v-1h235.76v1Zm-258.04 9.226-49.04 49.038-.7-.707 49.03-49.038.71.707Zm22.28-9.226a31.51 31.51 0 0 0-22.28 9.226l-.71-.707a32.529 32.529 0 0 1 22.99-9.519v1Zm258.03 9.226a31.487 31.487 0 0 0-22.27-9.226v-1c8.62 0 16.89 3.424 22.98 9.519l-.71.707Zm93.57 80.107c-8.62 0-16.88-3.424-22.98-9.519l.71-.707a31.5 31.5 0 0 0 22.27 9.226v1Zm244.62-9.519a32.488 32.488 0 0 1-22.98 9.519v-1c8.35 0 16.37-3.319 22.27-9.226l.71.707Zm105.84-92.794c-8.35 0-16.36 3.319-22.27 9.226l-.71-.707a32.505 32.505 0 0 1 22.98-9.519v1ZM1432 347.232a2.665 2.665 0 1 1-5.33 0 2.665 2.665 0 1 1 5.33 0Zm409.05 98.667.35-.353-.35.353Zm-32.41-32.411.35-.354-.35.354Zm-331.79-18.745.35-.354-.35.354Zm-47.16-47.864 47.51 47.51-.71.707-47.51-47.51.71-.707Zm69.78 56.736h286.54v1h-286.54v-1Zm309.52 9.519 32.41 32.412-.7.707-32.41-32.412.7-.707Zm54.69 41.638h69.59v1h-69.59v-1Zm-22.28-9.226a31.51 31.51 0 0 0 22.28 9.226v1c-8.62 0-16.89-3.424-22.98-9.519l.7-.707Zm-55.39-41.931c8.62 0 16.89 3.424 22.98 9.519l-.7.707a31.51 31.51 0 0 0-22.28-9.226v-1Zm-308.81-9.226a31.5 31.5 0 0 0 22.27 9.226v1c-8.62 0-16.88-3.424-22.98-9.519l.71-.707Zm524.4 64.7c0 1.473-1.2 2.667-2.67 2.667a2.671 2.671 0 0 1-2.67-2.667 2.671 2.671 0 0 1 5.34 0Zm-570.74-74.062c0 1.473-1.2 2.667-2.67 2.667a2.671 2.671 0 0 1-2.67-2.667c0-1.473 1.2-2.667 2.67-2.667s2.67 1.194 2.67 2.667Zm36.44 39.112.36-.354-.36.354Zm294.76 18.745.36-.354-.36.354Zm37.38 37.374-.36.354.36-.354Zm178.32 0-.35-.353.35.353Zm21.52-20.815-21.17 21.169-.7-.707 21.17-21.169.7.707Zm-44.15 30.688h-133.06v-1h133.06v1Zm-156.05-9.519-37.37-37.375.71-.707 37.37 37.375-.71.707Zm-59.64-46.601h-249.51v-1h249.51v1Zm-272.49-9.519-39.11-39.111.7-.708 39.12 39.112-.71.707Zm22.98 9.519c-8.62 0-16.89-3.424-22.98-9.519l.71-.707a31.487 31.487 0 0 0 22.27 9.226v1Zm271.78 9.226a31.505 31.505 0 0 0-22.27-9.226v-1c8.62 0 16.88 3.424 22.98 9.519l-.71.707Zm60.36 46.894c-8.62 0-16.89-3.424-22.99-9.519l.71-.707a31.51 31.51 0 0 0 22.28 9.226v1Zm156.04-9.519a32.488 32.488 0 0 1-22.98 9.519v-1a31.51 31.51 0 0 0 22.28-9.226l.7.707Z" fill="#fff" fill-opacity=".15"/><defs><linearGradient id="b" x1="357.158" y1="1342.81" x2="1728.1" y2="1048.1" gradientUnits="userSpaceOnUse"><stop stop-color="#5DA8FF" stop-opacity=".3"/><stop offset="1" stop-color="#899938"/></linearGradient><linearGradient id="d" x1="316.98" y1="1462.79" x2="1352.38" y2="1240.2" gradientUnits="userSpaceOnUse"><stop stop-color="#5DA8FF" stop-opacity=".3"/><stop offset="1" stop-color="#899938"/></linearGradient><filter id="a" x="-119" y="-3" width="2148" height="2148" filterUnits="userSpaceOnUse" color-interpolation-filters="sRGB"><feFlood flood-opacity="0" result="BackgroundImageFix"/><feBlend in="SourceGraphic" in2="BackgroundImageFix" result="shape"/><feGaussianBlur stdDeviation="156" result="effect1_foregroundBlur_287_3754"/></filter><filter id="c" x="-119" y="370" width="1775" height="1775" filterUnits="userSpaceOnUse" color-interpolation-filters="sRGB"><feFlood flood-opacity="0" result="BackgroundImageFix"/><feBlend in="SourceGraphic" in2="BackgroundImageFix" result="shape"/><feGaussianBlur stdDeviation="156" result="effect1_foregroundBlur_287_3754"/></filter></defs></svg>

<svg width="1920" height="753" viewBox="0 0 1920 753" fill="none" xmlns="http://www.w3.org/2000/svg">
<g opacity="0.5" filter="url(#filter0_f_287_3754)">
<circle cx="955" cy="1071" r="762" fill="url(#paint0_linear_287_3754)"/>
</g>
<g opacity="0.5" filter="url(#filter1_f_287_3754)">
<circle cx="768.5" cy="1257.5" r="575.5" fill="url(#paint1_linear_287_3754)"/>
</g>
<path d="M521.494 415.084C521.494 416.557 522.688 417.751 524.16 417.751C525.633 417.751 526.827 416.557 526.827 415.084C526.827 413.611 525.633 412.417 524.16 412.417C522.688 412.417 521.494 413.611 521.494 415.084ZM460.72 424.457L460.366 424.103L460.72 424.457ZM423.346 461.831L422.992 461.477L423.346 461.831ZM-43 471.703H400.718V470.703H-43V471.703ZM423.699 462.184L461.074 424.81L460.366 424.103L422.992 461.477L423.699 462.184ZM483.347 415.584H524.16V414.584H483.347V415.584ZM461.074 424.81C466.981 418.903 474.993 415.584 483.347 415.584V414.584C474.728 414.584 466.461 418.008 460.366 424.103L461.074 424.81ZM400.718 471.703C409.338 471.703 417.604 468.279 423.699 462.184L422.992 461.477C417.085 467.385 409.073 470.703 400.718 470.703V471.703Z" fill="white" fill-opacity="0.15"/>
<path d="M458.833 340.64C458.833 342.113 460.027 343.307 461.5 343.307C462.973 343.307 464.167 342.113 464.167 340.64C464.167 339.167 462.973 337.973 461.5 337.973C460.027 337.973 458.833 339.167 458.833 340.64ZM303.433 350.012L303.079 349.659L303.433 350.012ZM257.66 395.786L258.013 396.139L257.66 395.786ZM-43 405.658H235.032V404.658H-43V405.658ZM258.013 396.139L303.786 350.366L303.079 349.659L257.306 395.432L258.013 396.139ZM326.06 341.14H461.5V340.14H326.06V341.14ZM303.786 350.366C309.694 344.459 317.706 341.14 326.06 341.14V340.14C317.441 340.14 309.174 343.564 303.079 349.659L303.786 350.366ZM235.032 405.658C243.652 405.658 251.918 402.234 258.013 396.139L257.306 395.432C251.399 401.339 243.386 404.658 235.032 404.658V405.658Z" fill="white" fill-opacity="0.15"/>
<path d="M389.928 366.6C389.928 368.073 391.122 369.267 392.594 369.267C394.067 369.267 395.261 368.073 395.261 366.6C395.261 365.127 394.067 363.933 392.594 363.933C391.122 363.933 389.928 365.127 389.928 366.6ZM-42.2363 442.689H303.75V441.689H-42.2363V442.689ZM326.731 433.17L392.948 366.953L392.241 366.246L326.024 432.463L326.731 433.17ZM303.75 442.689C312.37 442.689 320.636 439.265 326.731 433.17L326.024 432.463C320.116 438.371 312.104 441.689 303.75 441.689V442.689Z" fill="white" fill-opacity="0.15"/>
<path d="M1364.05 391.135C1364.05 392.608 1362.85 393.802 1361.38 393.802C1359.91 393.802 1358.72 392.608 1358.72 391.135C1358.72 389.662 1359.91 388.468 1361.38 388.468C1362.85 388.468 1364.05 389.662 1364.05 391.135ZM1995.32 524.161L1995.68 524.515L1995.32 524.161ZM2397.11 453.099H2080.14V452.099H2397.11V453.099ZM2057.87 462.325L1995.68 524.515L1994.97 523.807L2057.16 461.618L2057.87 462.325ZM1972.7 534.034H1808.7V533.034H1972.7V534.034ZM1785.72 524.515L1736.9 475.687L1737.6 474.98L1786.43 523.807L1785.72 524.515ZM1714.62 466.461H1449.46V465.461H1714.62V466.461ZM1426.48 456.942L1361.03 391.489L1361.74 390.782L1427.19 456.235L1426.48 456.942ZM1449.46 466.461C1440.84 466.461 1432.58 463.037 1426.48 456.942L1427.19 456.235C1433.1 462.142 1441.11 465.461 1449.46 465.461V466.461ZM1736.9 475.687C1730.99 469.78 1722.98 466.461 1714.62 466.461V465.461C1723.24 465.461 1731.51 468.885 1737.6 474.98L1736.9 475.687ZM1808.7 534.034C1800.08 534.034 1791.82 530.609 1785.72 524.515L1786.43 523.807C1792.34 529.715 1800.35 533.034 1808.7 533.034V534.034ZM1995.68 524.515C1989.58 530.609 1981.31 534.034 1972.7 534.034V533.034C1981.05 533.034 1989.06 529.715 1994.97 523.807L1995.68 524.515ZM2080.14 453.099C2071.78 453.099 2063.77 456.418 2057.87 462.325L2057.16 461.618C2063.25 455.523 2071.52 452.099 2080.14 452.099V453.099Z" fill="white" fill-opacity="0.15"/>
<path d="M2110.41 483.904L2110.05 483.551L2110.2 483.404H2110.41V483.904ZM2011.53 582.781L2011.88 583.135L2011.74 583.281H2011.53V582.781ZM1779.03 582.781V583.281H1778.83L1778.68 583.135L1779.03 582.781ZM1694.66 498.411V497.911H1694.87L1695.02 498.058L1694.66 498.411ZM1464.09 498.411C1464.09 499.884 1462.9 501.078 1461.43 501.078C1459.95 501.078 1458.76 499.884 1458.76 498.411C1458.76 496.938 1459.95 495.745 1461.43 495.745C1462.9 495.745 1464.09 496.938 1464.09 498.411ZM2397.11 484.404H2110.41V483.404H2397.11V484.404ZM2110.76 484.258L2011.88 583.135L2011.17 582.428L2110.05 483.551L2110.76 484.258ZM2011.53 583.281H1779.03V582.281H2011.53V583.281ZM1778.68 583.135L1694.31 498.765L1695.02 498.058L1779.39 582.428L1778.68 583.135ZM1694.66 498.911H1461.43V497.911H1694.66V498.911Z" fill="white" fill-opacity="0.15"/>
<path d="M1363.67 597.67C1363.67 599.143 1362.47 600.337 1361 600.337C1359.53 600.337 1358.33 599.143 1358.33 597.67C1358.33 596.198 1359.53 595.004 1361 595.004C1362.47 595.004 1363.67 596.198 1363.67 597.67ZM1410.04 548.633L1410.39 548.986L1410.04 548.633ZM1691.06 548.633L1690.7 548.986L1691.06 548.633ZM1761.64 619.221L1762 618.867L1761.64 619.221ZM2112.1 535.653L2112.46 536.006L2112.1 535.653ZM2395.2 526.78H2134.73V525.78H2395.2V526.78ZM2112.46 536.006L2028.89 619.574L2028.18 618.867L2111.75 535.299L2112.46 536.006ZM2005.91 629.093H1784.27V628.093H2005.91V629.093ZM1761.29 619.574L1690.7 548.986L1691.41 548.279L1762 618.867L1761.29 619.574ZM1668.43 539.76H1432.67V538.76H1668.43V539.76ZM1410.39 548.986L1361.35 598.024L1360.65 597.317L1409.68 548.279L1410.39 548.986ZM1432.67 539.76C1424.31 539.76 1416.3 543.079 1410.39 548.986L1409.68 548.279C1415.78 542.184 1424.05 538.76 1432.67 538.76V539.76ZM1690.7 548.986C1684.8 543.079 1676.78 539.76 1668.43 539.76V538.76C1677.05 538.76 1685.32 542.184 1691.41 548.279L1690.7 548.986ZM1784.27 629.093C1775.65 629.093 1767.39 625.669 1761.29 619.574L1762 618.867C1767.91 624.775 1775.92 628.093 1784.27 628.093V629.093ZM2028.89 619.574C2022.8 625.669 2014.53 629.093 2005.91 629.093V628.093C2014.26 628.093 2022.28 624.774 2028.18 618.867L2028.89 619.574ZM2134.73 526.78C2126.38 526.78 2118.37 530.099 2112.46 536.006L2111.75 535.299C2117.85 529.204 2126.11 525.78 2134.73 525.78V526.78Z" fill="white" fill-opacity="0.15"/>
<path d="M1432 347.232C1432 348.705 1430.81 349.899 1429.34 349.899C1427.86 349.899 1426.67 348.705 1426.67 347.232C1426.67 345.76 1427.86 344.566 1429.34 344.566C1430.81 344.566 1432 345.76 1432 347.232ZM1841.05 445.899L1841.4 445.546L1841.05 445.899ZM1808.64 413.488L1808.99 413.134L1808.64 413.488ZM1476.85 394.743L1477.2 394.389L1476.85 394.743ZM1429.69 346.879L1477.2 394.389L1476.49 395.096L1428.98 347.586L1429.69 346.879ZM1499.47 403.615H1786.01V404.615H1499.47V403.615ZM1808.99 413.134L1841.4 445.546L1840.7 446.253L1808.29 413.841L1808.99 413.134ZM1863.68 454.772H1933.27V455.772H1863.68V454.772ZM1841.4 445.546C1847.31 451.453 1855.32 454.772 1863.68 454.772V455.772C1855.06 455.772 1846.79 452.348 1840.7 446.253L1841.4 445.546ZM1786.01 403.615C1794.63 403.615 1802.9 407.039 1808.99 413.134L1808.29 413.841C1802.38 407.934 1794.37 404.615 1786.01 404.615V403.615ZM1477.2 394.389C1483.11 400.297 1491.12 403.615 1499.47 403.615V404.615C1490.85 404.615 1482.59 401.191 1476.49 395.096L1477.2 394.389Z" fill="white" fill-opacity="0.15"/>
<path d="M2001.6 459.089C2001.6 460.562 2000.4 461.756 1998.93 461.756C1997.46 461.756 1996.26 460.562 1996.26 459.089C1996.26 457.617 1997.46 456.423 1998.93 456.423C2000.4 456.423 2001.6 457.617 2001.6 459.089ZM1430.86 385.027C1430.86 386.5 1429.66 387.694 1428.19 387.694C1426.72 387.694 1425.52 386.5 1425.52 385.027C1425.52 383.554 1426.72 382.36 1428.19 382.36C1429.66 382.36 1430.86 383.554 1430.86 385.027ZM1467.3 424.139L1467.66 423.785L1467.3 424.139ZM1762.06 442.884L1762.42 442.53L1762.06 442.884ZM1799.44 480.258L1799.08 480.612L1799.44 480.258ZM1977.76 480.258L1977.41 479.905L1977.76 480.258ZM1999.28 459.443L1978.11 480.612L1977.41 479.905L1998.58 458.736L1999.28 459.443ZM1955.13 490.131H1822.07V489.131H1955.13V490.131ZM1799.08 480.612L1761.71 443.237L1762.42 442.53L1799.79 479.905L1799.08 480.612ZM1739.44 434.011H1489.93V433.011H1739.44V434.011ZM1466.95 424.492L1427.84 385.381L1428.54 384.673L1467.66 423.785L1466.95 424.492ZM1489.93 434.011C1481.31 434.011 1473.04 430.587 1466.95 424.492L1467.66 423.785C1473.56 429.692 1481.58 433.011 1489.93 433.011V434.011ZM1761.71 443.237C1755.8 437.33 1747.79 434.011 1739.44 434.011V433.011C1748.06 433.011 1756.32 436.435 1762.42 442.53L1761.71 443.237ZM1822.07 490.131C1813.45 490.131 1805.18 486.707 1799.08 480.612L1799.79 479.905C1805.7 485.812 1813.71 489.131 1822.07 489.131V490.131ZM1978.11 480.612C1972.02 486.707 1963.75 490.131 1955.13 490.131V489.131C1963.49 489.131 1971.5 485.812 1977.41 479.905L1978.11 480.612Z" fill="white" fill-opacity="0.15"/>
<defs>
<filter id="filter0_f_287_3754" x="-119" y="-3" width="2148" height="2148" filterUnits="userSpaceOnUse" color-interpolation-filters="sRGB">
<feFlood flood-opacity="0" result="BackgroundImageFix"/>
<feBlend mode="normal" in="SourceGraphic" in2="BackgroundImageFix" result="shape"/>
<feGaussianBlur stdDeviation="156" result="effect1_foregroundBlur_287_3754"/>
</filter>
<filter id="filter1_f_287_3754" x="-119" y="370" width="1775" height="1775" filterUnits="userSpaceOnUse" color-interpolation-filters="sRGB">
<feFlood flood-opacity="0" result="BackgroundImageFix"/>
<feBlend mode="normal" in="SourceGraphic" in2="BackgroundImageFix" result="shape"/>
<feGaussianBlur stdDeviation="156" result="effect1_foregroundBlur_287_3754"/>
</filter>
<linearGradient id="paint0_linear_287_3754" x1="357.158" y1="1342.81" x2="1728.1" y2="1048.1" gradientUnits="userSpaceOnUse">
<stop stop-color="#5DA8FF" stop-opacity="0.3"/>
<stop offset="1" stop-color="#899938"/>
</linearGradient>
<linearGradient id="paint1_linear_287_3754" x1="316.98" y1="1462.79" x2="1352.38" y2="1240.2" gradientUnits="userSpaceOnUse">
<stop stop-color="#5DA8FF" stop-opacity="0.3"/>
<stop offset="1" stop-color="#899938"/>
</linearGradient>
</defs>
</svg>
